IMB-X-Files/The-Ambassadors-Assets/660c0a302230410a227b6357_Forbes_logo 1.svg

<svg fill="none" height="35" viewBox="0 0 127 35" width="127" xmlns="http://www.w3.org/2000/svg" xmlns:xlink="http://www.w3.org/1999/xlink"><clipPath id="a"><path d="m.313065.833252h126.172v33.4743h-126.172z"/></clipPath><g clip-path="url(#a)"><path d="m12.4593 3.95203h2.764c1.6832-.25118 3.4022-.03034 4.9703.63854 1.9672 1.19888 3.394 3.12895 3.9762 5.37848.4121 1.17885.4121 1.17885 1.4062.76135h.7758v-9.33253h-26.015099v1.64547h1.066789c.46358-.00325.92199.09874 1.34156.29849.41956.19975.78961.49218 1.08297.8558.99405 1.62091 1.16377 3.43829 1.16377 12.89357 0 10.0448-.21821 12.5007-1.16377 13.7532-.23344.322-.53566.5865-.88412.7736-.34845.1871-.73413.2921-1.12824.307-1.478959.2702-1.478959.2456-1.478959.9087-.081788.2218-.081788.4659 0 .6877h16.413999c.1087-.2169.1653-.4567.1653-.7 0-.2432-.0566-.483-.1653-.6999-.3975-.112-.8027-.1941-1.2122-.2456-.443-.0534-.881-.1437-1.3093-.2701-.6133-.4536-1.0992-1.0615-1.4096-1.7636s-.4346-1.474-.3603-2.2396c-.2424-1.6209-.3637-4.5926-.3637-7.0485v-1.9402h.9699c1.2082-.0374 2.4158.0948 3.5883.393.5616.3516 1.0398.8244 1.4002 1.3848s.5943 1.1945.6848 1.857l.2182.7613h1.479v-10.8797h-1.3577l-.2182 1.056c-.0918.6775-.3393 1.3238-.7225 1.8868s-.8914 1.0271-1.4838 1.355c-.5738.173-1.1783.2149-1.77.1228h-2.7882v-2.6524c0-2.7506.1455-8.54659.2425-9.45528zm113.4677 19.47547c-1.146-1.8684-2.933-3.2417-5.019-3.8558-1.598-.5061-3.076-1.3424-4.34-2.4559-.284-.2786-.497-.6234-.619-1.0044-.123-.381-.151-.7866-.084-1.1814.002-.7744.307-1.5163.849-2.063.367-.3893.831-.6704 1.344-.8131.512-.1428 1.053-.1418 1.565.0027 1.06.306 2.019.8967 2.774 1.7095.756.8128 1.28 1.8175 1.518 2.9076.388 1.1052.436 1.1052 1.139.8105l.437-.1719v-6.1153l-.316-.1473c-2.386-.8492-4.918-1.2001-7.443-1.0315-2.174.0558-4.249.9316-5.819 2.4559-.712.6751-1.269 1.4997-1.634 2.416-.364.9164-.526 1.9023-.475 2.8888.014 1.5082.605 2.9522 1.649 4.0277 1.153 1.1494 2.569 1.9929 4.121 2.4559 3.758 1.4982 4.849 2.456 4.849 4.1997.017.7353-.215 1.4543-.655 2.039-.441.5846-1.065 1.0001-1.769 1.1782-.847.1884-1.724.1884-2.57 0-1.109-.4357-2.098-1.1333-2.887-2.0346-.788-.9013-1.353-1.9804-1.647-3.1474l-.315-.7859h-.437c-.208.0157-.413.0655-.606.1474h-.242v6.9748h.412c1.638.552 3.328.9306 5.043 1.1298h2.425c1.051.0781 2.108-.0215 3.127-.2948 1.294-.2418 2.503-.8224 3.507-1.6841s1.767-1.9745 2.215-3.2277c.289-.7.438-1.4515.436-2.2103.096-1.0691-.088-2.1448-.533-3.1191zm-22.839-12.6971c-1.453-.6179-3.018-.91763-4.5935-.87953-1.5753.03809-3.1248.41313-4.5469 1.10053-1.3367.6623-2.5215 1.6012-3.4778 2.7561-.9564 1.1548-1.663 2.5-2.0744 3.9486-.5244 1.5803-.7466 3.2473-.6546 4.9119-.0174.9056.0557 1.8107.2182 2.7015.3915 2.1902 1.4354 4.2066 2.9913 5.7783 1.556 1.5717 3.5495 2.6234 5.7128 3.0139 1.4087.1798 2.8341.1798 4.2429 0 1.462-.261 2.861-.8029 4.122-1.5964 1.043-.5922 1.925-1.4357 2.57-2.4559-.042-.1601-.115-.31-.215-.4408-.1-.1309-.225-.2399-.367-.3205-.277.1015-.538.242-.776.4175-1.206.805-2.63 1.2086-4.073 1.1543-.958.0656-1.919-.0855-2.8118-.4423-.8932-.3568-1.6968-.9104-2.3527-1.6207-.5074-.4774-.9262-1.043-1.2365-1.67-.7534-1.5268-1.1594-3.2053-1.188-4.9119v-.9578h13.432v-.4912c.029-.4907.029-.9828 0-1.4735-.005-1.7342-.463-3.4361-1.327-4.9329-.865-1.4968-2.105-2.7352-3.595-3.5892zm-6.7644 8.4975h-1.6971v-1.449c.5576-3.7085 1.9396-5.9188 3.6367-5.9188 1.6972 0 2.4248 2.1858 2.7398 6.189v1.1297h-1.4548zm-34.8646-9.30796c-.8378-.03292-1.6706.14426-2.4246.51576-1.6386.8061-2.9622 2.1468-3.758 3.8067l-.3152.5894v-4.91186h-.1212c-.2909 0-9.2617 1.81736-9.5526 1.94016-.291.1228-.194.1474-.194.5894 0 .4421 0 .5158.194.5403l.9456.1965c.2648.0066.5247.0741.7599.1975s.4397.2994.5978.5147c.6061.8105.7273 2.2349.7273 8.3011.1198 2.7309.0062 5.4671-.3394 8.1782-.0814.4088-.286.7819-.5856 1.0679-.2997.2859-.6796.4706-1.0873.5284l-.8243.172h-.3152v.6876c-.088.2291-.088.4832 0 .7122h13.5531v-.7122c.047-.235.047-.4772 0-.7122-.8161-.0322-1.6275-.1391-2.4246-.3193-.434-.2299-.7891-.5877-1.0185-1.0261-.2293-.4384-.3223-.9369-.2665-1.4298-.1939-1.4244-.2909-5.5995-.2424-8.7922s0-3.3892.2667-3.6102c.8113-.6301 1.8152-.9517 2.8367-.9087.9628.0213 1.9081.2649 2.7639.7122.2967.1669.615.2909.9456.3684 0 0 2.4245-5.9433 2.4245-6.2135-.3102-.3652-.7055-.6463-1.15-.8178-.4445-.17154-.9242-.2281-1.3957-.16456zm-16.3413 10.31486c-.0847-1.755-.5821-3.4641-1.4508-4.9849-.8688-1.5208-2.0838-2.8093-3.5438-3.7582-1.7349-.9481-3.6653-1.4709-5.6359-1.52631-1.9706-.05545-3.9266.35801-5.7108 1.20711-2.5228 1.3475-4.4275 3.6381-5.3097 6.3854-.9113 3.0758-.9113 6.3549 0 9.4307.4777 1.681 1.3705 3.2109 2.5942 4.4452 1.524 1.5064 3.4892 2.4715 5.6007 2.7507 1.3553.1148 2.7178.1148 4.0732 0 .4987-.0769.9926-.1835 1.4789-.3193 1.9735-.5592 3.7489-1.6761 5.1186-3.2201s2.277-3.4512 2.6157-5.4984c.242-1.6253.2989-3.2734.1697-4.9119zm-10.0861 12.2797c-2.4245.7367-4.2429-1.6455-4.849-6.6556-.2226-2.623-.2226-5.2605 0-7.8835.4849-4.0277 1.7214-6.0662 3.6368-6.0662.3864-.0242.773.0456 1.1273.2037s.6661.3998.9093.705c1.6244 1.6455 2.4245 4.9119 2.4245 9.8237.2017 2.7799-.2296 5.5695-1.2607 8.1537-.4553.7537-1.1598 1.3194-1.9882 1.5964zm43.6415-22.1034c-.6841-.0892-1.3767-.0892-2.0609 0-1.3132-.0011-2.6113.2837-3.8065.835l-.7516.3193v-5.32935c.1314-1.79856.1314-3.60449 0-5.403042-.2909 0-9.5526 1.792822-9.6981 1.866502-.0715.18132-.0715.38354 0 .56486 0 .51575 0 .49119 1.0911.73678.3063.06959.6005.1855.8728.34383.4733.45081.7883 1.04583.8971 1.69459.276 1.86902.3654 3.76146.2667 5.64863v21.563l.6546.1474c.9698.221 3.7095.6876 4.6066.7859 1.7913.1443 3.5911.1443 5.3824 0 1.9883-.2057 3.8835-.9571 5.4814-2.1732 1.5978-1.2161 2.8378-2.8508 3.5864-4.728.4462-1.2048.7553-2.4572.9213-3.733.1443-1.7281.0873-3.4674-.1697-5.182-.2601-1.9219-1.0976-3.7164-2.3987-5.1398-1.3012-1.4235-3.0031-2.4071-4.8749-2.8174zm-6.3523 21.6858c0-.3192-.2424-11.0762-.1939-15.374v-3.3647l.7031-.1719c.4744-.0688.9561-.0688 1.4305 0 .5246-.054 1.0523.0667 1.5032.3438.9054.633 1.6573 1.4658 2.199 2.4357.5418.9699.8593 2.0517.9286 3.1639.1766 1.7883.1766 3.5901 0 5.3784-.1451 2.5993-1.1338 5.0772-2.8125 7.0485-.4764.4584-1.0747.7658-1.7214.8842-.4893.0862-.9896.0862-1.4789 0-.4607 0-.4607-.1474-.4607-.3439z" fill="#fff"/></g></svg>

<svg width="127" height="35" viewBox="0 0 127 35" fill="none" xmlns="http://www.w3.org/2000/svg">
    <g clip-path="url(#clip0_2534_13330)">
        <path
            d="M12.4593 3.95203H15.2233C16.9065 3.70085 18.6255 3.92169 20.1936 4.59057C22.1608 5.78945 23.5876 7.71952 24.1698 9.96905C24.5819 11.1479 24.5819 11.1479 25.576 10.7304H26.3518V1.39787H0.336701V3.04334H1.40349C1.86707 3.04009 2.32548 3.14208 2.74505 3.34183C3.16461 3.54158 3.53466 3.83401 3.82802 4.19763C4.82207 5.81854 4.99179 7.63592 4.99179 17.0912C4.99179 27.136 4.77358 29.5919 3.82802 30.8444C3.59458 31.1664 3.29236 31.4309 2.9439 31.618C2.59545 31.8051 2.20977 31.9101 1.81566 31.925C0.336701 32.1952 0.336701 32.1706 0.336701 32.8337C0.254913 33.0555 0.254913 33.2996 0.336701 33.5214H16.7507C16.8594 33.3045 16.916 33.0647 16.916 32.8214C16.916 32.5782 16.8594 32.3384 16.7507 32.1215C16.3532 32.0095 15.948 31.9274 15.5385 31.8759C15.0955 31.8225 14.6575 31.7322 14.2292 31.6058C13.6159 31.1522 13.13 30.5443 12.8196 29.8422C12.5092 29.1401 12.385 28.3682 12.4593 27.6026C12.2169 25.9817 12.0956 23.01 12.0956 20.5541V18.6139H13.0655C14.2737 18.5765 15.4813 18.7087 16.6538 19.0069C17.2154 19.3585 17.6936 19.8313 18.054 20.3917C18.4144 20.9521 18.6483 21.5862 18.7388 22.2487L18.957 23.01H20.436V12.1303H19.0783L18.8601 13.1863C18.7683 13.8638 18.5208 14.5101 18.1376 15.0731C17.7544 15.6361 17.2462 16.1002 16.6538 16.4281C16.08 16.6011 15.4755 16.643 14.8838 16.5509H12.0956V13.8985C12.0956 11.1479 12.2411 5.35191 12.3381 4.44322L12.4593 3.95203ZM125.927 23.4275C124.781 21.5591 122.994 20.1858 120.908 19.5717C119.31 19.0656 117.832 18.2293 116.568 17.1158C116.284 16.8372 116.071 16.4924 115.949 16.1114C115.826 15.7304 115.798 15.3248 115.865 14.93C115.867 14.1556 116.172 13.4137 116.714 12.867C117.081 12.4777 117.545 12.1966 118.058 12.0539C118.57 11.9111 119.111 11.9121 119.623 12.0566C120.683 12.3626 121.642 12.9533 122.397 13.7661C123.153 14.5789 123.677 15.5836 123.915 16.6737C124.303 17.7789 124.351 17.7789 125.054 17.4842L125.491 17.3123V11.197L125.175 11.0497C122.789 10.2005 120.257 9.8496 117.732 10.0182C115.558 10.074 113.483 10.9498 111.913 12.4741C111.201 13.1492 110.644 13.9738 110.279 14.8901C109.915 15.8065 109.753 16.7924 109.804 17.7789C109.818 19.2871 110.409 20.7311 111.453 21.8066C112.606 22.956 114.022 23.7995 115.574 24.2625C119.332 25.7607 120.423 26.7185 120.423 28.4622C120.44 29.1975 120.208 29.9165 119.768 30.5012C119.327 31.0858 118.703 31.5013 117.999 31.6794C117.152 31.8678 116.275 31.8678 115.429 31.6794C114.32 31.2437 113.331 30.5461 112.542 29.6448C111.754 28.7435 111.189 27.6644 110.895 26.4974L110.58 25.7115H110.143C109.935 25.7272 109.73 25.777 109.537 25.8589H109.295V32.8337H109.707C111.345 33.3857 113.035 33.7643 114.75 33.9635H117.175C118.226 34.0416 119.283 33.942 120.302 33.6687C121.596 33.4269 122.805 32.8463 123.809 31.9846C124.813 31.1229 125.576 30.0101 126.024 28.7569C126.313 28.0569 126.462 27.3054 126.46 26.5466C126.556 25.4775 126.372 24.4018 125.927 23.4275ZM103.088 10.7304C101.635 10.1125 100.07 9.81277 98.4945 9.85087C96.9192 9.88896 95.3697 10.264 93.9476 10.9514C92.6109 11.6137 91.4261 12.5526 90.4698 13.7075C89.5134 14.8623 88.8068 16.2075 88.3954 17.6561C87.871 19.2364 87.6488 20.9034 87.7408 22.568C87.7234 23.4736 87.7965 24.3787 87.959 25.2695C88.3505 27.4597 89.3944 29.4761 90.9503 31.0478C92.5063 32.6195 94.4998 33.6712 96.6631 34.0617C98.0718 34.2415 99.4972 34.2415 100.906 34.0617C102.368 33.8007 103.767 33.2588 105.028 32.4653C106.071 31.8731 106.953 31.0296 107.598 30.0094C107.556 29.8493 107.483 29.6994 107.383 29.5686C107.283 29.4377 107.158 29.3287 107.016 29.2481C106.739 29.3496 106.478 29.4901 106.24 29.6656C105.034 30.4706 103.61 30.8742 102.167 30.8199C101.209 30.8855 100.248 30.7344 99.3552 30.3776C98.462 30.0208 97.6584 29.4672 97.0025 28.7569C96.4951 28.2795 96.0763 27.7139 95.766 27.0869C95.0126 25.5601 94.6066 23.8816 94.578 22.175V21.2172H108.01V20.726C108.039 20.2353 108.039 19.7432 108.01 19.2525C108.005 17.5183 107.547 15.8164 106.683 14.3196C105.818 12.8228 104.578 11.5844 103.088 10.7304ZM96.3236 19.2279H94.6265V17.7789C95.1841 14.0704 96.5661 11.8601 98.2632 11.8601C99.9604 11.8601 100.688 14.0459 101.003 18.0491V19.1788H99.5482L96.3236 19.2279ZM61.459 9.91994C60.6212 9.88702 59.7884 10.0642 59.0344 10.4357C57.3958 11.2418 56.0722 12.5825 55.2764 14.2424L54.9612 14.8318V9.91994H54.84C54.5491 9.91994 45.5783 11.7373 45.2874 11.8601C44.9964 11.9829 45.0934 12.0075 45.0934 12.4495C45.0934 12.8916 45.0934 12.9653 45.2874 12.9898L46.233 13.1863C46.4978 13.1929 46.7577 13.2604 46.9929 13.3838C47.2281 13.5072 47.4326 13.6832 47.5907 13.8985C48.1968 14.709 48.318 16.1334 48.318 22.1996C48.4378 24.9305 48.3242 27.6667 47.9786 30.3778C47.8972 30.7866 47.6926 31.1597 47.393 31.4457C47.0933 31.7316 46.7134 31.9163 46.3057 31.9741L45.4814 32.1461H45.1662V32.8337C45.0782 33.0628 45.0782 33.3169 45.1662 33.5459H58.7193V32.8337C58.7663 32.5987 58.7663 32.3565 58.7193 32.1215C57.9032 32.0893 57.0918 31.9824 56.2947 31.8022C55.8607 31.5723 55.5056 31.2145 55.2762 30.7761C55.0469 30.3377 54.9539 29.8392 55.0097 29.3463C54.8158 27.9219 54.7188 23.7468 54.7673 20.5541C54.8158 17.3614 54.7673 17.1649 55.034 16.9439C55.8453 16.3138 56.8492 15.9922 57.8707 16.0352C58.8335 16.0565 59.7788 16.3001 60.6346 16.7474C60.9313 16.9143 61.2496 17.0383 61.5802 17.1158C61.5802 17.1158 64.0047 11.1725 64.0047 10.9023C63.6945 10.5371 63.2992 10.256 62.8547 10.0845C62.4102 9.91296 61.9305 9.8564 61.459 9.91994ZM45.1177 20.2348C45.033 18.4798 44.5356 16.7707 43.6669 15.2499C42.7981 13.7291 41.5831 12.4406 40.1231 11.4917C38.3882 10.5436 36.4578 10.0208 34.4872 9.96539C32.5166 9.90994 30.5606 10.3234 28.7764 11.1725C26.2536 12.52 24.3489 14.8106 23.4667 17.5579C22.5554 20.6337 22.5554 23.9128 23.4667 26.9886C23.9444 28.6696 24.8372 30.1995 26.0609 31.4338C27.5849 32.9402 29.5501 33.9053 31.6616 34.1845C33.0169 34.2993 34.3794 34.2993 35.7348 34.1845C36.2335 34.1076 36.7274 34.001 37.2137 33.8652C39.1872 33.306 40.9626 32.1891 42.3323 30.6451C43.702 29.1011 44.6093 27.1939 44.948 25.1467C45.19 23.5214 45.2469 21.8733 45.1177 20.2348ZM35.0316 32.5145C32.6071 33.2512 30.7887 30.869 30.1826 25.8589C29.96 23.2359 29.96 20.5984 30.1826 17.9754C30.6675 13.9477 31.904 11.9092 33.8194 11.9092C34.2058 11.885 34.5924 11.9548 34.9467 12.1129C35.301 12.271 35.6128 12.5127 35.856 12.8179C37.4804 14.4634 38.2805 17.7298 38.2805 22.6416C38.4822 25.4215 38.0509 28.2111 37.0198 30.7953C36.5645 31.549 35.86 32.1147 35.0316 32.3917V32.5145ZM78.6731 10.4111C77.989 10.3219 77.2964 10.3219 76.6122 10.4111C75.299 10.41 74.0009 10.6948 72.8057 11.2461L72.0541 11.5654V6.23605C72.1855 4.43749 72.1855 2.63156 72.0541 0.833008C71.7632 0.833008 62.5015 2.62583 62.356 2.69951C62.2845 2.88083 62.2845 3.08305 62.356 3.26437C62.356 3.78012 62.356 3.75556 63.4471 4.00115C63.7534 4.07074 64.0476 4.18665 64.3199 4.34498C64.7932 4.79579 65.1082 5.39081 65.217 6.03957C65.493 7.90859 65.5824 9.80103 65.4837 11.6882V33.2512L66.1383 33.3986C67.1081 33.6196 69.8478 34.0862 70.7449 34.1845C72.5362 34.3288 74.336 34.3288 76.1273 34.1845C78.1156 33.9788 80.0108 33.2274 81.6087 32.0113C83.2065 30.7952 84.4465 29.1605 85.1951 27.2833C85.6413 26.0785 85.9504 24.8261 86.1164 23.5503C86.2607 21.8222 86.2037 20.0829 85.9467 18.3683C85.6866 16.4464 84.8491 14.6519 83.548 13.2285C82.2468 11.805 80.5449 10.8214 78.6731 10.4111ZM72.3208 32.0969C72.3208 31.7777 72.0784 21.0207 72.1269 16.7229V13.3582L72.83 13.1863C73.3044 13.1175 73.7861 13.1175 74.2605 13.1863C74.7851 13.1323 75.3128 13.253 75.7637 13.5301C76.6691 14.1631 77.421 14.9959 77.9627 15.9658C78.5045 16.9357 78.822 18.0175 78.8913 19.1297C79.0679 20.918 79.0679 22.7198 78.8913 24.5081C78.7462 27.1074 77.7575 29.5853 76.0788 31.5566C75.6024 32.015 75.0041 32.3224 74.3574 32.4408C73.8681 32.527 73.3678 32.527 72.8785 32.4408C72.4178 32.4408 72.4178 32.2934 72.4178 32.0969H72.3208Z"
            fill="white" />
    </g>
    <defs>
        <clipPath id="clip0_2534_13330">
            <rect width="126.172" height="33.4743" fill="white" transform="translate(0.313065 0.833252)" />
        </clipPath>
    </defs>
</svg>
